X:1
T:Saving Grace
T: Daniel Brink Towner
T:Saving Grace
T:Public Domain
T:Public Domain
T:Public Domain
C:Daniel Brink Towner
Z:Public Domain
%%score ( 1 2 ) ( 3 4 )
L:1/8
M:4/4
K:G
V:1 treble 
V:2 treble 
V:3 bass 
V:4 bass 
V:1
 [GB]2 [GA][GB] D3 [B,D] | [CE]2 [Ec]2 [DB]3 [DB] | [^CA]2 [CE]2 [DF][DF][CG][CG] | %3
w: 1.~O gold- en day, when|shall break, And dawn’s|bright glor- ies shall un- fold,|
w: 2.~Life’s up- ward way, a|row path, Leads on|to that fair dwell- ing place,|
w: 3.~I dim- ly see my|ney’s end, But well|I know who guid- eth me.|
 ([CA]4 [^C^A]4) | [GB]2 [GA][GB] D3 [B,D] | [CE]2 [Ec]2 [DB]3 [GB] | %6
w: When *|He who knows the path|take Shall ope for|
w: Where, *|safe from sin, and storm,|wrath, They live who|
w: I *|fol- low Him, that won-|friend, Whose match- less|
 [GB][FA][FA][FA] [GB]2 [G^c]2 | (F2 G2 A2 c2) | [Gd]2 [^Ge][GB] [Ac]3 [Ac] | %9
w: me the gates of gold! Earth’s|lit- * * *|while will soon be past,|
w: trust re- deem- ing grace. Sing,|sing, * * *|heart, a- long the way,|
w: love is full and free. And|when * * *|Him I en- ter in,|
 [Ad]2 [FA]2 [GB]3 [DB] | [^DB]2 [DF]2 [EG]3 [EG] | [EA]2 [^CE]2 [DF]2 (ED) | %12
w: My pil- grim song|will soon be o’er,|The grace that saves *|
w: The grace that saves|will keep and guide|Till breaks the glor- *|
w: And all the way|look back to trace,|The con- qu’ror’s palm *|
 [B,D]2 [DG]2 [GB]3 [=Fd] | [Ed]2 [Ec]2 [CE]3 [EA] | [DG][DG][DF][DG] [GB]3 [DA] | [DG]6 z2 || %16
w: time out- last, And|be my theme on|yon- der shore. * * *||
w: crown- ing day, And|I shall cross to|yon- der side. Then I shall|know|
w: then shall win, Through|Christ and His re-|deem- ing grace. * * *||
"^Refrain" [Bd] | [Bd]2 [Ac]2 [FA]3 [Fe] | [Ge]2 [Gd]2 [GB]3 [Gd] | [Fd]2 [Ac]2 [FA]3 [Fe] | %20
w: ||||
w: as|I am known, And|stand com- plete be-|fore the throne; Then|
w: ||||
 [Ge]2 [Gd]2 [GB]3 [B,D] | [B,D]2 [DG]2 [GB]3 [=Fd] | [Ed]2 [Ec]2 [CE]3 [EA] | %23
w: |||
w: I shall see my|Sav- ior’s face, And|all my song be|
w: |||
 [DG][DG][DF][DG] [FB]3 [FA] | [DG]6 z2 |] %25
w: ||
w: sav- ing grace. * * *||
w: ||
V:2
 x4 D3 x | x8 | x8 | x8 | x4 D3 x | x8 | x8 | d4- d4 | x8 | x8 | x8 | x6 =C2 | x8 | x8 | x8 | x8 || %16
w: light||||I|||tle *||||shall|||||
w: nar-||||and|||my *||||ious|||||
w: jour-||||drous|||with *||||I|||||
 x | x8 | x8 | x8 | x8 | x8 | x8 | x8 | x8 |] %25
w: |||||||||
w: |||||||||
w: |||||||||
V:3
 [G,D]2 [G,C][G,D] [G,B,]3 [G,,G,] | [C,G,]2 [C,G,]2 G,3 [G,,G,] | %2
 [A,,E,]2 [A,,G,]2 [A,,A,][A,,A,][A,,G,][A,,G,] | (D,2 ^D,2 [E,G,]4) | %4
 [G,D]2 [G,C][G,D] [G,B,]3 [G,,G,] | [C,G,]2 [C,G,]2 G,3 [G,D] | %6
 [D,D][D,D][D,D][D,D] (G,F,) [E,A,]2 | (D,2 E,2 [F,A,]4) | [G,B,]2 [E,B,][^G,E] [A,E]3 [=G,E] | %9
 [F,D]2 [D,D]2 [G,D]3 [G,,G,] | [B,,F,]2 [B,,B,]2 [E,B,]3 [D,B,] | %11
 [^C,A,]2 [A,,A,]2 [D,A,]2 (G,F,) | [G,,G,]2 [G,B,]2 [G,D]3 [B,,G,] | %13
 [C,G,]2 [C,G,]2 [A,,A,]3 [C,C] | [D,B,][D,B,][D,A,][D,B,] [D,D]3 [D,C] | [G,B,]6 z2 || [G,D] | %17
 [D,D]2 [D,D]2 [D,D]3 [D,C] | [G,C]2 [G,B,]2 [G,D]3 [G,B,] | [D,A,]2 [D,D]2 [D,D]3 [D,C] | %20
 [G,C]2 [G,B,]2 [G,D]3 G, | G,2 [G,B,]2 [G,D]3 [B,,G,] | [C,G,]2 [C,G,]2 [A,,A,]3 [C,C] | %23
 [D,B,][D,B,][D,A,][D,B,] [D,D]3 [D,C] | [G,B,]6 z2 |] %25
V:4
 x8 | x4 G,3 x | x8 | F,4 x4 | x8 | x8 | x4 D2 x2 | A,4- x4 | x8 | x8 | x8 | x6 D,2 | x8 | x8 | %14
 x8 | x8 || x | x8 | x8 | x8 | x7 G, | G,2 x6 | x8 | x8 | x8 |] %25

